X: 10664
T: La GRAND RONDEAU
N: The title isn't exactly grammatically-correct French.
C:
%R: reel, polka
B: Elias Howe "The Musician's Companion" Part 1 1842 p.66 #4
S: http://imslp.org/wiki/The_Musician's_Companion_(Howe,_Elias)
Z: 2015 John Chambers <jc:trillian.mit.edu>
M: 2/4
L: 1/16
K: D
% - - - - - - - - - - - - - - - - - - - - - - - - -
[|\
D2D2 DEFG | A2A2 A4 | dcBA dcBA | dcde f4 |\
D2D2 DEFG | A2A2 A4 | gfed fedc | d2d2 !fine!d4 |]
[|\
f2f2 fgfe | d2B2 B4 | e2e2 efed | c2A2 A4 |\
B2F2 c2F2 | d2F2 e2F2 | f2F2 BABc | B2c2 d2"^D.C."d2 |]
% - - - - - - - - - - - - - - - - - - - - - - - - -


